Sources/FrostedUI/Resources/Icons.xcassets/gift32.imageset/gift-32.svg

<svg width="32" height="32" viewBox="0 0 32 32" fill="none" xmlns="http://www.w3.org/2000/svg" data-fui-icon="true">
  <path
    d="M11.6377 2C13.6945 2.00009 15.4751 3.38666 16 5.34766C16.5249 3.38666 18.3055 2.00009 20.3623 2H21.0566C23.2343 2 25 3.76571 25 5.94336C24.9999 6.92077 24.6539 7.81723 24.0781 8.51758H27.6299C28.9388 8.51758 30 9.57878 30 10.8877V13.6387C30 14.9476 28.9388 16.0088 27.6299 16.0088H27.5V26.3398C27.5 28.3612 25.8612 30 23.8398 30H8.16016C6.13879 30 4.5 28.3612 4.5 26.3398V16.0088H4.37012C3.0612 16.0088 2 14.9476 2 13.6387V10.8877C2 9.57878 3.0612 8.51758 4.37012 8.51758H7.92188C7.34607 7.81723 7.00009 6.92077 7 5.94336C7 3.76571 8.76571 2 10.9434 2H11.6377ZM6 26.3398C6 27.5328 6.96722 28.5 8.16016 28.5H15.25V16.0088H6V26.3398ZM16.75 28.5H23.8398C25.0328 28.5 26 27.5328 26 26.3398V16.0088H16.75V28.5ZM4.37012 10.0176C3.88963 10.0176 3.5 10.4072 3.5 10.8877V13.6387C3.5 14.1192 3.88963 14.5088 4.37012 14.5088H15.25V10.0176H4.37012ZM16.75 14.5088H27.6299C28.1104 14.5088 28.5 14.1192 28.5 13.6387V10.8877C28.5 10.4072 28.1104 10.0176 27.6299 10.0176H16.75V14.5088ZM10.9434 3.5C9.59414 3.5 8.5 4.59414 8.5 5.94336C8.5002 7.35526 9.64474 8.4998 11.0566 8.5H15.0918L14.6016 5.94824C14.3283 4.52727 13.0847 3.50009 11.6377 3.5H10.9434ZM20.3623 3.5C18.9153 3.50009 17.6717 4.52727 17.3984 5.94824L16.9082 8.5H20.9434C22.3553 8.4998 23.4998 7.35526 23.5 5.94336C23.5 4.59414 22.4059 3.5 21.0566 3.5H20.3623Z"
    fill="currentColor"
  />
</svg>

<svg xmlns="http://www.w3.org/2000/svg" width="32" height="32" fill="none" data-fui-icon="true" viewBox="0 0 32 32"><path fill="currentColor" d="M11.638 2A4.52 4.52 0 0 1 16 5.348 4.52 4.52 0 0 1 20.362 2h.695A3.944 3.944 0 0 1 25 5.943a4.04 4.04 0 0 1-.922 2.575h3.552a2.37 2.37 0 0 1 2.37 2.37v2.75a2.37 2.37 0 0 1-2.37 2.37h-.13V26.34A3.66 3.66 0 0 1 23.84 30H8.16a3.66 3.66 0 0 1-3.66-3.66V16.009h-.13A2.37 2.37 0 0 1 2 13.639v-2.751a2.37 2.37 0 0 1 2.37-2.37h3.552A4.04 4.04 0 0 1 7 5.943 3.944 3.944 0 0 1 10.943 2zM6 26.34a2.16 2.16 0 0 0 2.16 2.16h7.09V16.009H6zm10.75 2.16h7.09A2.16 2.16 0 0 0 26 26.34V16.009h-9.25zM4.37 10.018a.87.87 0 0 0-.87.87v2.75c0 .481.39.87.87.87h10.88v-4.49zm12.38 4.49h10.88c.48 0 .87-.389.87-.87v-2.75a.87.87 0 0 0-.87-.87H16.75zM10.943 3.5A2.444 2.444 0 0 0 8.5 5.943 2.557 2.557 0 0 0 11.057 8.5h4.035l-.49-2.552A3.02 3.02 0 0 0 11.638 3.5zm9.42 0a3.02 3.02 0 0 0-2.965 2.448l-.49 2.552h4.035A2.557 2.557 0 0 0 23.5 5.943 2.444 2.444 0 0 0 21.057 3.5z"/></svg>
